icons/solid/funnel.svg

<svg width="24" height="24" viewBox="0 0 24 24" fill="none" xmlns="http://www.w3.org/2000/svg">
<path fill-rule="evenodd" clip-rule="evenodd" d="M3.79154 2.93825C6.46066 2.48562 9.20314 2.25 12.0001 2.25C14.7969 2.25 17.5394 2.48561 20.2085 2.93822C21.1108 3.09125 21.75 3.87676 21.75 4.77402V5.81802C21.75 6.61367 21.4339 7.37673 20.8713 7.93934L14.6893 14.1213C14.408 14.4026 14.25 14.7842 14.25 15.182V18.1094C14.25 19.2457 13.608 20.2845 12.5916 20.7927L10.8354 21.6708C10.6029 21.7871 10.3268 21.7746 10.1057 21.638C9.88459 21.5013 9.75 21.2599 9.75 21V15.182C9.75 14.7842 9.59196 14.4026 9.31066 14.1213L3.12868 7.93934C2.56607 7.37673 2.25 6.61367 2.25 5.81802V4.77404C2.25 3.87678 2.88917 3.09127 3.79154 2.93825Z" fill="#0F172A"/>
</svg>

<svg xmlns="http://www.w3.org/2000/svg" viewBox="0 0 24 24" fill="currentColor" aria-hidden="true" data-slot="icon">
  <path fill-rule="evenodd" d="M3.792 2.938A49.069 49.069 0 0 1 12 2.25c2.797 0 5.54.236 8.209.688a1.857 1.857 0 0 1 1.541 1.836v1.044a3 3 0 0 1-.879 2.121l-6.182 6.182a1.5 1.5 0 0 0-.439 1.061v2.927a3 3 0 0 1-1.658 2.684l-1.757.878A.75.75 0 0 1 9.75 21v-5.818a1.5 1.5 0 0 0-.44-1.06L3.13 7.938a3 3 0 0 1-.879-2.121V4.774c0-.897.64-1.683 1.542-1.836Z" clip-rule="evenodd"/>
</svg>
